X:0807
T:Happy to Meet and Sorry to Part (jig) 0807
C:after  Cap't.  F. O'Neill.
B:O'Neill's Music Of Ireland (The 1850) Lyon & Healy, Chicago, 1903 edition
Z:FROM O'NEILL'S TO NOTEWORTHY, FROM NOTEWORTHY TO ABC, MIDI AND .TXT BY VINCE
BRENNAN June 2003 (HTTP://WWW.SOSYOURMOM.COM)
I:abc2nwc
M:6/8
L:1/8
K:G
g/2f/2"^Segno"|edc BAB|GEF G2A|Bdd Bee|
Bdd dge|dBG AGE|DEG G2A|Bed B2A|BGG G2:|
|:e/2f/2|gag fed|Bdd def|gag fed|Bee e2f|
gag gfe|[1dBd g2e|dBG AGE|DEG G2:|
[2dBd g2f|gfg eag|fef "^Dal Segno"gfe|]
